automatic/svg/Sony - PlayStation 2 SCPH-90000 T.svg

<?xml version="1.0" encoding="UTF-8" standalone="no"?>
<svg
   xmlns:dc="http://purl.org/dc/elements/1.1/"
   xmlns:cc="http://creativecommons.org/ns#"
   xmlns:rdf="http://www.w3.org/1999/02/22-rdf-syntax-ns#"
   xmlns:svg="http://www.w3.org/2000/svg"
   xmlns="http://www.w3.org/2000/svg"
   viewBox="0 0 320 320"
   height="320"
   width="320"
   xml:space="preserve"
   version="1.1"
   id="svg2"><metadata
     id="metadata8"><rdf:RDF><cc:Work
         rdf:about=""><dc:format>image/svg+xml</dc:format><dc:type
           rdf:resource="http://purl.org/dc/dcmitype/StillImage" /></cc:Work></rdf:RDF></metadata><defs
     id="defs6" /><g
     transform="matrix(1.25,0,0,-1.25,0,320)"
     id="g10"><path
       id="path12"
       style="fill:#f2f2f2;fill-opacity:1;fill-rule:nonzero;stroke:none"
       d="m 56,244 144,0 0,-124 -144,0 0,124 z m 144,-224 -4,0 0,12 0,4 -4,0 -128,0 -4,0 0,-4 0,-12 -4,0 0,96 144,0 0,-96 z m -8,-8 -128,0 0,4 0,4 0,12 128,0 0,-12 0,-4 0,-4 z m 8,236 -144,0 -4,0 0,-4 0,-124 0,-4 0,-96 0,-4 4,0 4,0 0,-4 0,-4 4,0 128,0 4,0 0,4 0,4 4,0 4,0 0,4 0,96 0,4 0,124 0,4 -4,0 z" /></g></svg>

<?xml version="1.0" encoding="UTF-8" standalone="no"?>
<svg
   xmlns:dc="http://purl.org/dc/elements/1.1/"
   xmlns:cc="http://creativecommons.org/ns#"
   xmlns:rdf="http://www.w3.org/1999/02/22-rdf-syntax-ns#"
   xmlns:svg="http://www.w3.org/2000/svg"
   xmlns="http://www.w3.org/2000/svg"
   viewBox="0 0 202.66665 320"
   height="320"
   width="202.66666"
   xml:space="preserve"
   id="svg2"
   version="1.1"><metadata
     id="metadata8"><rdf:RDF><cc:Work
         rdf:about=""><dc:format>image/svg+xml</dc:format><dc:type
           rdf:resource="http://purl.org/dc/dcmitype/StillImage" /></cc:Work></rdf:RDF></metadata><defs
     id="defs6" /><g
     transform="matrix(1.3333333,0,0,-1.3333333,-69.333332,330.66666)"
     id="g10"><path
       id="path12"
       style="fill:#f2f2f2;fill-opacity:1;fill-rule:nonzero;stroke:none"
       d="M 56,244 H 200 V 120 H 56 Z M 200,20 h -4 v 12 4 H 192 64 60 V 32 20 h -4 v 96 h 144 z m -8,-8 H 64 v 4 4 12 H 192 V 20 16 Z m 8,236 H 56 52 v -4 -124 -4 -96 -4 h 4 4 V 12 8 h 4 128 4 v 4 4 h 4 4 v 4 96 4 124 4 z" /></g></svg>
